; generated by PrusaSlicer 2.2.0-rc4+linux-x64 on 2020-05-20 at 10:38:25 UTC

; 

; external perimeters extrusion width = 0.45mm
; perimeters extrusion width = 0.45mm
; infill extrusion width = 0.45mm
; solid infill extrusion width = 0.45mm
; top infill extrusion width = 0.40mm
; first layer extrusion width = 0.42mm

M73 P0 R37
M73 Q0 S38
M201 X1000 Y1000 Z1000 E5000 ; sets maximum accelerations, mm/sec^2
M203 X200 Y200 Z12 E120 ; sets maximum feedrates, mm/sec
M204 P1250 R1250 T1250 ; sets acceleration (P, T) and retract acceleration (R), mm/sec^2
M205 X8.00 Y8.00 Z0.40 E4.50 ; sets the jerk limits, mm/sec
M205 S0 T0 ; sets the minimum extruding and travel feed rate, mm/sec
M107
M862.3 P "MK3S" ; printer model check
M862.1 P0.4 ; nozzle diameter check
M115 U3.8.1 ; tell printer latest fw version
G90 ; use absolute coordinates
M83 ; extruder relative mode
M104 S215 ; set extruder temp
M140 S60 ; set bed temp
M190 S60 ; wait for bed temp
M109 S215 ; wait for extruder temp
G28 W ; home all without mesh bed level
G80 ; mesh bed leveling
G1 Y-3.0 F1000.0 ; go outside print area
G92 E0.0
G1 X60.0 E9.0 F1000.0 ; intro line
M73 Q0 S38
M73 P0 R37
G1 X100.0 E12.5 F1000.0 ; intro line
G92 E0.0
M221 S95
G21 ; set units to millimeters
G90 ; use absolute coordinates
M83 ; use relative distances for extrusion
M900 K30 ; Filament gcode
;BEFORE_LAYER_CHANGE
G92 E0.0
;0.2


G1 E-0.80000 F2100.00000
G1 Z0.600 F10800.000
;AFTER_LAYER_CHANGE
;0.2
G1 X89.420 Y93.537
G1 Z0.200
G1 E0.80000 F2100.00000
M204 S1000
G1 F1200.000
G1 X91.745 Y91.342 E0.10024
G1 X95.016 Y89.309 E0.12074
G1 X98.020 Y88.193 E0.10049
G1 X101.513 Y87.640 E0.11089
G1 X146.536 Y87.670 E1.41166
G1 X149.762 Y87.788 E0.10120
G1 X153.131 Y88.581 E0.10853
G1 X156.181 Y89.967 E0.10505
G1 X158.957 Y91.952 E0.10700
G1 X161.287 Y94.436 E0.10678
G1 X163.093 Y97.337 E0.10716
G1 X164.292 Y100.519 E0.10660
G1 X164.848 Y103.884 E0.10695
G1 X164.735 Y107.287 E0.10674
G1 X163.940 Y110.658 E0.10862
G1 X162.555 Y113.698 E0.10472
G1 X160.706 Y116.294 E0.09996
G1 X158.078 Y118.797 E0.11379
G1 X154.971 Y120.689 E0.11405
G1 X151.982 Y121.800 E0.10001
G1 X148.834 Y122.330 E0.10009
G1 X103.430 Y122.330 E1.42360
G1 X100.210 Y122.211 E0.10105
G1 X96.848 Y121.419 E0.10829
G1 X93.801 Y120.032 E0.10494
G1 X91.042 Y118.055 E0.10645
G1 X88.714 Y115.573 E0.10668
G1 X87.019 Y112.871 E0.10001
G1 X85.661 Y109.271 E0.12063
G1 X85.152 Y106.107 E0.10049
G1 X85.267 Y102.702 E0.10683
G1 X86.038 Y99.397 E0.10642
G1 X87.438 Y96.307 E0.10636
G1 X89.385 Y93.586 E0.10492
G1 F8640.000
G1 X91.745 Y91.342 E-0.75177
G1 X91.775 Y91.323 E-0.00823
G1 E-0.04000 F2100.00000
G1 Z0.800 F10800.000
G1 X138.224 Y112.744
G1 Z0.200
G1 E0.80000 F2100.00000
G1 F1200.000
G1 X138.547 Y112.537 E0.01204
G1 X138.892 Y112.454 E0.01112
G1 X139.182 Y112.451 E0.00909
G1 X139.584 Y112.533 E0.01289
G1 X140.076 Y112.755 E0.01692
G1 X142.144 Y114.256 E0.08011
G1 X142.499 Y114.648 E0.01659
G1 X142.652 Y114.897 E0.00918
G1 X142.763 Y115.164 E0.00904
G1 X142.822 Y115.473 E0.00988
G1 X142.794 Y115.801 E0.01032
G1 X142.711 Y116.037 E0.00782
G1 X142.493 Y116.334 E0.01156
G1 X142.195 Y116.527 E0.01114
G1 X141.971 Y116.602 E0.00741
G1 X141.553 Y116.631 E0.01311
G1 X141.141 Y116.547 E0.01319
G1 X140.761 Y116.387 E0.01292
G1 X140.431 Y116.183 E0.01219
G1 X138.581 Y114.825 E0.07195
G1 X138.299 Y114.532 E0.01275
G1 X138.127 Y114.291 E0.00928
G1 X137.958 Y113.926 E0.01263
G1 X137.897 Y113.605 E0.01025
G1 X137.925 Y113.277 E0.01032
G1 X138.007 Y113.043 E0.00776
G1 X138.188 Y112.793 E0.00970
G1 X138.345 Y113.220 F10800.000
G1 F1200.000
G1 X138.487 Y113.023 E0.00763
G1 X138.697 Y112.889 E0.00781
G1 X138.939 Y112.830 E0.00780
G1 X139.146 Y112.828 E0.00649
G1 X139.468 Y112.894 E0.01031
G1 X139.886 Y113.082 E0.01439
G1 X141.890 Y114.538 E0.07768
G1 X142.196 Y114.875 E0.01426
G1 X142.316 Y115.070 E0.00716
G1 X142.400 Y115.273 E0.00690
G1 X142.442 Y115.493 E0.00703
G1 X142.423 Y115.721 E0.00718
G1 X142.374 Y115.859 E0.00457
G1 X142.230 Y116.055 E0.00764
G1 X142.030 Y116.184 E0.00746
G1 X141.897 Y116.229 E0.00442
G1 X141.578 Y116.251 E0.01000
G1 X141.253 Y116.185 E0.01041
G1 X140.935 Y116.051 E0.01083
G1 X140.642 Y115.870 E0.01079
G1 X138.830 Y114.541 E0.07046
G1 X138.590 Y114.291 E0.01087
G1 X138.455 Y114.101 E0.00732
G1 X138.320 Y113.809 E0.01007
G1 X138.277 Y113.585 E0.00716
G1 X138.296 Y113.357 E0.00718
G1 X138.325 Y113.277 E0.00267
G1 X138.214 Y113.015 F10800.000
G1 F8640.000
G1 X138.487 Y113.023 E-0.06960
G1 X138.697 Y112.889 E-0.05748
G1 X138.939 Y112.830 E-0.05741
G1 X139.146 Y112.828 E-0.04780
G1 X139.468 Y112.894 E-0.07590
G1 X139.886 Y113.082 E-0.10594
G1 X141.098 Y113.963 E-0.34587
G1 E-0.04000 F2100.00000
G1 Z0.800 F10800.000
G1 X144.791 Y116.539
G1 Z0.200
G1 E0.80000 F2100.00000
G1 F1200.000
G1 X144.860 Y116.178 E0.01153
G1 X144.965 Y115.968 E0.00737
G1 X145.161 Y115.729 E0.00968
G1 X145.410 Y115.542 E0.00976
G1 X145.779 Y115.373 E0.01273
G1 X146.180 Y115.278 E0.01293
G1 X146.567 Y115.250 E0.01217
G1 X148.746 Y115.252 E0.06830
G1 X149.256 Y115.330 E0.01620
G1 X149.531 Y115.423 E0.00909
G1 X149.798 Y115.556 E0.00935
G1 X150.127 Y115.835 E0.01353
G1 X150.306 Y116.132 E0.01089
G1 X150.374 Y116.370 E0.00775
G1 X150.374 Y116.708 E0.01061
G1 X150.306 Y116.946 E0.00775
G1 X150.127 Y117.243 E0.01089
G1 X149.798 Y117.522 E0.01352
G1 X149.531 Y117.655 E0.00935
G1 X149.256 Y117.748 E0.00909
G1 X148.745 Y117.826 E0.01621
G1 X146.322 Y117.818 E0.07598
G1 X145.920 Y117.745 E0.01281
G1 X145.653 Y117.655 E0.00884
G1 X145.401 Y117.530 E0.00881
G1 X145.161 Y117.349 E0.00944
G1 X144.965 Y117.110 E0.00968
G1 X144.860 Y116.900 E0.00737
G1 X144.802 Y116.598 E0.00965
G1 X145.221 Y116.778 F10800.000
G1 F1200.000
G1 X145.175 Y116.539 E0.00763
G1 X145.221 Y116.300 E0.00763
G1 X145.283 Y116.174 E0.00441
G1 X145.424 Y116.003 E0.00694
G1 X145.604 Y115.868 E0.00706
G1 X145.902 Y115.732 E0.01028
G1 X146.238 Y115.652 E0.01083
G1 X146.581 Y115.627 E0.01078
G1 X148.717 Y115.629 E0.06697
G1 X149.167 Y115.698 E0.01427
G1 X149.386 Y115.772 E0.00725
G1 X149.589 Y115.873 E0.00710
G1 X149.836 Y116.082 E0.01015
G1 X149.957 Y116.284 E0.00738
G1 X149.997 Y116.423 E0.00453
G1 X149.997 Y116.655 E0.00729
G1 X149.957 Y116.794 E0.00453
G1 X149.836 Y116.996 E0.00738
G1 X149.589 Y117.205 E0.01015
G1 X149.386 Y117.306 E0.00710
G1 X149.167 Y117.380 E0.00725
G1 X148.717 Y117.449 E0.01426
G1 X146.357 Y117.441 E0.07402
G1 X146.014 Y117.379 E0.01090
G1 X145.798 Y117.306 E0.00716
G1 X145.601 Y117.208 E0.00691
G1 X145.424 Y117.075 E0.00694
G1 X145.283 Y116.904 E0.00694
G1 X145.247 Y116.832 E0.00253
G1 X144.982 Y116.730 F10800.000
G1 F8640.000
G1 X145.175 Y116.539 E-0.06960
G1 X145.221 Y116.300 E-0.05616
G1 X145.283 Y116.174 E-0.03248
G1 X145.424 Y116.003 E-0.05108
G1 X145.604 Y115.868 E-0.05196
G1 X145.902 Y115.732 E-0.07573
G1 X146.238 Y115.652 E-0.07972
G1 X146.581 Y115.627 E-0.07942
G1 X147.724 Y115.628 E-0.26384
G1 E-0.04000 F2100.00000
G1 Z0.800 F10800.000
G1 X152.236 Y116.030
G1 Z0.200
G1 E0.80000 F2100.00000
G1 F1200.000
G1 X152.158 Y115.796 E0.00774
G1 X152.130 Y115.494 E0.00950
G1 X152.156 Y115.292 E0.00641
G1 X152.240 Y115.024 E0.00879
G1 X152.376 Y114.761 E0.00928
G1 X152.703 Y114.357 E0.01631
G1 X153.006 Y114.100 E0.01244
G1 X154.759 Y112.829 E0.06790
G1 X155.002 Y112.687 E0.00882
G1 X155.365 Y112.535 E0.01236
G1 X155.640 Y112.469 E0.00884
G1 X155.893 Y112.448 E0.00798
G1 X156.091 Y112.458 E0.00620
G1 X156.407 Y112.539 E0.01024
G1 X156.725 Y112.743 E0.01185
G1 X156.961 Y113.064 E0.01249
G1 X157.054 Y113.432 E0.01190
G1 X157.033 Y113.779 E0.01091
G1 X156.889 Y114.177 E0.01328
G1 X156.663 Y114.518 E0.01280
G1 X156.468 Y114.732 E0.00910
G1 X156.179 Y114.978 E0.01189
G1 X154.519 Y116.184 E0.06433
G1 X154.189 Y116.388 E0.01216
G1 X153.810 Y116.547 E0.01291
G1 X153.397 Y116.631 E0.01319
G1 X152.958 Y116.600 E0.01382
G1 X152.637 Y116.464 E0.01093
G1 X152.442 Y116.313 E0.00771
G1 X152.271 Y116.079 E0.00911
G1 X152.575 Y115.856 F10800.000
G1 F1200.000
G1 X152.529 Y115.718 E0.00457
G1 X152.509 Y115.502 E0.00681
G1 X152.526 Y115.373 E0.00406
G1 X152.590 Y115.168 E0.00675
G1 X152.693 Y114.968 E0.00704
G1 X152.974 Y114.622 E0.01398
G1 X153.239 Y114.397 E0.01089
G1 X154.965 Y113.145 E0.06685
G1 X155.170 Y113.026 E0.00746
G1 X155.483 Y112.895 E0.01063
G1 X155.700 Y112.843 E0.00699
G1 X155.900 Y112.826 E0.00629
G1 X156.034 Y112.832 E0.00421
G1 X156.255 Y112.889 E0.00716
G1 X156.463 Y113.022 E0.00775
G1 X156.613 Y113.228 E0.00797
G1 X156.674 Y113.468 E0.00778
G1 X156.660 Y113.702 E0.00735
G1 X156.549 Y114.006 E0.01015
G1 X156.365 Y114.286 E0.01049
G1 X156.206 Y114.460 E0.00742
G1 X155.945 Y114.681 E0.01069
G1 X154.309 Y115.871 E0.06343
G1 X154.016 Y116.051 E0.01079
G1 X153.698 Y116.185 E0.01083
G1 X153.372 Y116.251 E0.01042
G1 X153.047 Y116.228 E0.01023
G1 X152.829 Y116.136 E0.00742
G1 X152.715 Y116.048 E0.00451
G1 X152.611 Y115.905 E0.00556
G1 X152.430 Y115.847 F10800.000
G1 F8640.000
G1 X152.529 Y115.718 E-0.04703
G1 X152.509 Y115.502 E-0.05018
G1 X152.526 Y115.373 E-0.02992
G1 X152.590 Y115.168 E-0.04969
G1 X152.693 Y114.968 E-0.05188
G1 X152.974 Y114.622 E-0.10297
G1 X153.239 Y114.397 E-0.08018
G1 X154.459 Y113.512 E-0.34815
G1 E-0.04000 F2100.00000
G1 Z0.800 F10800.000
G1 X145.950 Y101.552
G1 Z0.200
G1 E0.80000 F2100.00000
G1 F1200.000
G1 X149.000 Y101.552 E0.09565
G1 X149.726 Y101.921 E0.02552
G1 X150.574 Y102.766 E0.03753
G1 X151.118 Y103.832 E0.03754
G1 X151.306 Y105.015 E0.03756
G1 X151.118 Y106.197 E0.03752
G1 X150.574 Y107.263 E0.03753
G1 X149.726 Y108.109 E0.03755
G1 X148.658 Y108.652 E0.03757
G1 X147.476 Y108.839 E0.03754
G1 X146.292 Y108.652 E0.03758
G1 X145.225 Y108.109 E0.03753
G1 X144.376 Y107.263 E0.03757
G1 X143.832 Y106.197 E0.03755
G1 X143.645 Y105.015 E0.03751
G1 X143.832 Y103.832 E0.03754
G1 X144.376 Y102.766 E0.03756
G1 X145.225 Y101.921 E0.03754
G1 X145.896 Y101.579 E0.02362
G1 X146.040 Y101.929 F10800.000
G1 F1200.000
G1 X148.910 Y101.929 E0.08998
G1 X149.502 Y102.230 E0.02082
G1 X150.265 Y102.991 E0.03378
G1 X150.755 Y103.950 E0.03379
G1 X150.925 Y105.015 E0.03380
G1 X150.755 Y106.079 E0.03377
G1 X150.265 Y107.038 E0.03378
G1 X149.502 Y107.800 E0.03380
G1 X148.540 Y108.289 E0.03383
G1 X147.476 Y108.457 E0.03380
G1 X146.409 Y108.289 E0.03384
G1 X145.449 Y107.800 E0.03379
G1 X144.685 Y107.038 E0.03382
G1 X144.195 Y106.078 E0.03380
G1 X144.026 Y105.015 E0.03376
G1 X144.195 Y103.951 E0.03379
G1 X144.685 Y102.990 E0.03380
G1 X145.449 Y102.230 E0.03380
G1 X145.987 Y101.956 E0.01892
G1 X146.159 Y101.547 F10800.000
G1 F8640.000
G1 X148.910 Y101.929 E-0.67503
G1 X149.238 Y102.096 E-0.08497
G1 E-0.04000 F2100.00000
G1 Z0.800 F10800.000
G1 X141.176 Y92.272
G1 Z0.200
G1 E0.80000 F2100.00000
G1 F1200.000
G1 X143.789 Y91.290 E0.08752
G1 X146.544 Y90.836 E0.08756
G1 X149.334 Y90.927 E0.08754
G1 X152.054 Y91.560 E0.08754
G1 X154.597 Y92.710 E0.08751
G1 X156.866 Y94.332 E0.08745
G1 X158.775 Y96.365 E0.08743
G1 X160.248 Y98.731 E0.08741
G1 X161.232 Y101.338 E0.08735
G1 X161.686 Y104.086 E0.08732
G1 X161.594 Y106.870 E0.08733
G1 X160.961 Y109.582 E0.08735
G1 X159.809 Y112.119 E0.08735
G1 X158.183 Y114.383 E0.08739
G1 X156.146 Y116.287 E0.08744
G1 X153.774 Y117.758 E0.08751
G1 X151.162 Y118.740 E0.08749
G1 X148.407 Y119.194 E0.08755
G1 X145.617 Y119.103 E0.08754
G1 X142.897 Y118.470 E0.08754
G1 X140.354 Y117.320 E0.08751
G1 X138.084 Y115.698 E0.08747
G1 X136.177 Y113.664 E0.08743
G1 X134.703 Y111.299 E0.08739
G1 X133.719 Y108.692 E0.08735
G1 X133.265 Y105.944 E0.08733
G1 X133.356 Y103.160 E0.08733
G1 X133.989 Y100.448 E0.08734
G1 X135.142 Y97.911 E0.08736
G1 X136.768 Y95.647 E0.08739
G1 X138.805 Y93.743 E0.08745
G1 X141.125 Y92.303 E0.08560
G1 X140.926 Y91.983 F10800.000
G1 F1200.000
G1 X141.008 Y91.932 E0.00304
G1 X143.691 Y90.924 E0.08985
G1 X146.519 Y90.458 E0.08988
G1 X149.384 Y90.551 E0.08986
G1 X152.175 Y91.201 E0.08986
G1 X154.786 Y92.382 E0.08984
G1 X157.115 Y94.047 E0.08978
G1 X159.075 Y96.134 E0.08976
G1 X160.588 Y98.563 E0.08974
G1 X161.598 Y101.240 E0.08969
G1 X162.064 Y104.061 E0.08966
G1 X161.970 Y106.919 E0.08966
G1 X161.319 Y109.704 E0.08968
G1 X160.137 Y112.309 E0.08968
G1 X158.468 Y114.633 E0.08972
G1 X156.376 Y116.588 E0.08977
G1 X153.942 Y118.098 E0.08983
G1 X151.260 Y119.106 E0.08982
G1 X148.432 Y119.572 E0.08988
G1 X145.567 Y119.479 E0.08986
G1 X142.776 Y118.829 E0.08986
G1 X140.165 Y117.648 E0.08984
G1 X137.835 Y115.983 E0.08980
G1 X135.876 Y113.895 E0.08976
G1 X134.363 Y111.466 E0.08972
G1 X133.353 Y108.790 E0.08968
G1 X132.887 Y105.969 E0.08966
G1 X132.980 Y103.111 E0.08966
G1 X133.631 Y100.326 E0.08968
G1 X134.814 Y97.721 E0.08969
G1 X136.483 Y95.397 E0.08972
G1 X138.575 Y93.442 E0.08977
G1 X140.875 Y92.014 E0.08488
G1 X141.013 Y92.026 F10800.000
G1 F8640.000
G1 X141.008 Y91.932 E-0.03628
G1 X143.691 Y90.924 E-0.66165
G1 X143.956 Y90.880 E-0.06207
G1 E-0.04000 F2100.00000
G1 Z0.800 F10800.000
G1 X134.251 Y100.145
G1 Z0.200
G1 E0.80000 F2100.00000
G1 F1200.000
G1 X149.132 Y115.025 E0.66681
G1 X148.767 Y114.969 E0.01169
G1 X148.537 Y114.969 E0.00729
G1 X134.230 Y100.662 E0.64112
G1 X134.128 Y101.099 E0.01422
G1 X147.998 Y114.969 E0.62152
G1 X147.458 Y114.968 E0.01709
G1 X134.026 Y101.536 E0.60192
G1 X133.924 Y101.972 E0.01422
G1 X146.919 Y114.967 E0.58232
G1 X146.391 Y114.979 E0.01671
G1 X133.821 Y102.409 E0.56327
G1 X133.719 Y102.846 E0.01422
G1 X145.922 Y115.049 E0.54681
G1 X145.687 Y115.105 E0.00766
G1 X145.517 Y115.182 E0.00592
G1 X133.634 Y103.300 E0.53247
G1 X133.617 Y103.821 E0.01654
G1 X145.166 Y115.371 E0.51754
G1 X144.964 Y115.524 E0.00804
G1 X144.881 Y115.625 E0.00413
G1 X133.600 Y104.343 E0.50552
G1 X133.583 Y104.865 E0.01654
G1 X144.661 Y115.943 E0.49643
G1 X144.590 Y116.086 E0.00506
G1 X144.537 Y116.359 E0.00879
G1 X133.566 Y105.387 E0.49164
G1 X133.549 Y105.909 E0.01654
G1 X140.091 Y112.451 E0.29315
G1 X139.672 Y112.262 E0.01456
G1 X139.284 Y112.183 E0.01255
G1 X133.652 Y106.551 E0.25238
G1 X133.759 Y107.197 E0.02074
G1 X138.757 Y112.195 E0.22400
G1 X138.435 Y112.273 E0.01052
G1 X138.350 Y112.327 E0.00318
G1 X133.865 Y107.842 E0.20097
G1 X133.972 Y108.488 E0.02074
G1 X138.023 Y112.539 E0.18151
G1 X137.797 Y112.852 E0.01223
G1 X134.254 Y109.309 E0.15874
G1 X134.581 Y110.174 E0.02930
G1 X137.644 Y113.238 E0.13727
G1 X137.612 Y113.619 E0.01213
G1 X137.641 Y113.774 E0.00497
G1 X134.907 Y111.040 E0.12251
G1 X134.957 Y111.173 E0.00450
G1 X135.711 Y112.383 E0.04518
G1 X140.167 Y116.838 E0.19964
G1 X140.496 Y117.073 E0.01283
G1 X141.308 Y117.441 E0.02825
G1 X140.305 Y116.438 E0.04495
G1 X140.631 Y116.640 E0.01216
G1 X141.058 Y116.818 E0.01465
G1 X141.268 Y116.861 E0.00679
G1 X142.292 Y117.886 E0.04592
G1 X142.989 Y118.201 E0.02421
G1 X143.194 Y118.249 E0.00668
G1 X141.840 Y116.894 E0.06069
G1 X142.026 Y116.881 E0.00592
G1 X142.281 Y116.796 E0.00850
G1 X143.896 Y118.412 E0.07240
G1 X144.599 Y118.576 E0.02285
G1 X142.615 Y116.592 E0.08889
G1 X142.690 Y116.543 E0.00284
G1 X142.866 Y116.304 E0.00941
G1 X145.301 Y118.739 E0.10912
G1 X145.654 Y118.821 E0.01147
G1 X145.931 Y118.830 E0.00880
G1 X143.044 Y115.943 E0.12937
G1 X143.073 Y115.862 E0.00274
G1 X143.107 Y115.467 E0.01255
G1 X146.488 Y118.848 E0.15153
G1 X147.045 Y118.866 E0.01766
G1 X146.276 Y118.097 E0.03448
G1 X146.820 Y118.102 E0.01725
G1 X147.602 Y118.885 E0.03505
G1 X148.159 Y118.903 E0.01766
G1 X147.361 Y118.104 E0.03579
G1 X147.901 Y118.106 E0.01713
G1 X148.661 Y118.865 E0.03403
G1 X149.124 Y118.789 E0.01486
G1 X148.442 Y118.108 E0.03053
G1 X148.766 Y118.109 E0.01027
G1 X148.954 Y118.080 E0.00600
G1 X149.586 Y118.713 E0.02835
G1 X150.049 Y118.637 E0.01486
G1 X149.408 Y117.995 E0.02874
G1 X149.640 Y117.917 E0.00776
G1 X149.792 Y117.841 E0.00540
G1 X150.512 Y118.561 E0.03224
G1 X150.974 Y118.484 E0.01486
G1 X150.115 Y117.625 E0.03853
G1 X150.345 Y117.429 E0.00958
G1 X150.388 Y117.359 E0.00261
G1 X151.384 Y118.355 E0.04464
G1 X151.775 Y118.207 E0.01326
G1 X150.581 Y117.013 E0.05353
G1 X150.657 Y116.748 E0.00874
G1 X150.657 Y116.550 E0.00627
G1 X152.167 Y118.060 E0.06769
G1 X152.559 Y117.913 E0.01326
G1 X134.548 Y99.902 E0.80709
G1 X134.716 Y99.532 E0.01290
G1 X152.950 Y117.766 E0.81709
