; generated by PrusaSlicer 2.2.0-rc4+linux-x64 on 2020-05-19 at 14:12:29 UTC

; 

; external perimeters extrusion width = 0.45mm
; perimeters extrusion width = 0.45mm
; infill extrusion width = 0.45mm
; solid infill extrusion width = 0.45mm
; top infill extrusion width = 0.40mm
; first layer extrusion width = 0.42mm

M73 P0 R37
M73 Q0 S37
M201 X1000 Y1000 Z1000 E5000 ; sets maximum accelerations, mm/sec^2
M203 X200 Y200 Z12 E120 ; sets maximum feedrates, mm/sec
M204 P1250 R1250 T1250 ; sets acceleration (P, T) and retract acceleration (R), mm/sec^2
M205 X8.00 Y8.00 Z0.40 E4.50 ; sets the jerk limits, mm/sec
M205 S0 T0 ; sets the minimum extruding and travel feed rate, mm/sec
M107
M862.3 P "MK3S" ; printer model check
M862.1 P0.4 ; nozzle diameter check
M115 U3.8.1 ; tell printer latest fw version
G90 ; use absolute coordinates
M83 ; extruder relative mode
M104 S215 ; set extruder temp
M140 S60 ; set bed temp
M190 S60 ; wait for bed temp
M109 S215 ; wait for extruder temp
G28 W ; home all without mesh bed level
G80 ; mesh bed leveling
G1 Y-3.0 F1000.0 ; go outside print area
G92 E0.0
G1 X60.0 E9.0 F1000.0 ; intro line
M73 Q0 S37
M73 P0 R37
G1 X100.0 E12.5 F1000.0 ; intro line
G92 E0.0
M221 S95
G21 ; set units to millimeters
G90 ; use absolute coordinates
M83 ; use relative distances for extrusion
M900 K30 ; Filament gcode
;BEFORE_LAYER_CHANGE
G92 E0.0
;0.2


G1 E-0.80000 F2100.00000
G1 Z0.600 F10800.000
;AFTER_LAYER_CHANGE
;0.2
G1 X112.445 Y92.446
G1 Z0.200
G1 E0.80000 F2100.00000
M204 S1000
G1 F1200.000
G1 X115.136 Y90.238 E0.10913
G1 X118.207 Y88.597 E0.10915
G1 X121.537 Y87.587 E0.10911
G1 X125.004 Y87.246 E0.10925
G1 X128.463 Y87.587 E0.10898
G1 X131.794 Y88.598 E0.10915
G1 X134.864 Y90.238 E0.10912
G1 X137.554 Y92.445 E0.10912
G1 X139.762 Y95.136 E0.10913
G1 X141.403 Y98.207 E0.10915
G1 X142.413 Y101.537 E0.10911
G1 X142.754 Y105.000 E0.10913
G1 X142.413 Y108.463 E0.10911
G1 X141.402 Y111.794 E0.10915
G1 X139.762 Y114.864 E0.10912
G1 X137.555 Y117.554 E0.10912
G1 X134.864 Y119.762 E0.10913
G1 X131.793 Y121.403 E0.10915
G1 X128.463 Y122.413 E0.10911
G1 X125.000 Y122.754 E0.10913
G1 X121.537 Y122.413 E0.10911
G1 X118.206 Y121.402 E0.10915
G1 X115.136 Y119.762 E0.10912
G1 X112.446 Y117.555 E0.10912
G1 X110.238 Y114.864 E0.10913
G1 X108.597 Y111.793 E0.10915
G1 X107.587 Y108.463 E0.10911
G1 X107.246 Y105.000 E0.10913
G1 X107.587 Y101.537 E0.10910
G1 X108.598 Y98.206 E0.10915
G1 X110.238 Y95.136 E0.10912
G1 X112.407 Y92.492 E0.10724
G1 X112.697 Y92.730 F10800.000
G1 F1200.000
G1 X115.345 Y90.552 E0.10748
G1 X118.350 Y88.946 E0.10683
G1 X121.609 Y87.957 E0.10680
G1 X125.003 Y87.623 E0.10693
G1 X128.389 Y87.956 E0.10667
G1 X131.649 Y88.946 E0.10683
G1 X134.653 Y90.551 E0.10680
G1 X137.287 Y92.711 E0.10680
G1 X139.448 Y95.345 E0.10681
G1 X141.054 Y98.350 E0.10683
G1 X142.043 Y101.609 E0.10680
G1 X142.377 Y104.999 E0.10681
G1 X142.044 Y108.389 E0.10679
G1 X141.054 Y111.649 E0.10683
G1 X139.449 Y114.653 E0.10680
G1 X137.289 Y117.287 E0.10680
G1 X134.655 Y119.448 E0.10681
G1 X131.650 Y121.054 E0.10683
G1 X128.391 Y122.043 E0.10680
G1 X125.001 Y122.377 E0.10681
G1 X121.611 Y122.044 E0.10679
G1 X118.351 Y121.054 E0.10683
G1 X115.346 Y119.449 E0.10681
G1 X112.713 Y117.289 E0.10680
G1 X110.552 Y114.655 E0.10681
G1 X108.946 Y111.650 E0.10683
G1 X107.957 Y108.391 E0.10680
G1 X107.623 Y105.001 E0.10681
G1 X107.956 Y101.611 E0.10679
G1 X108.946 Y98.351 E0.10683
G1 X110.551 Y95.346 E0.10681
G1 X112.659 Y92.776 E0.10424
G1 F8640.000
G1 X115.194 Y90.677 E-0.76000
G1 E-0.04000 F2100.00000
G1 Z0.800 F10800.000
G1 X128.287 Y103.055
G1 Z0.200
G1 E0.80000 F2100.00000
G1 F1200.000
G1 X128.287 Y106.945 E0.12194
G1 X127.682 Y107.682 E0.02991
G1 X127.107 Y108.154 E0.02331
G1 X126.452 Y108.505 E0.02331
G1 X125.741 Y108.721 E0.02331
G1 X125.000 Y108.794 E0.02334
G1 X124.259 Y108.721 E0.02333
G1 X123.548 Y108.505 E0.02332
G1 X122.892 Y108.153 E0.02331
G1 X122.318 Y107.682 E0.02330
G1 X121.847 Y107.107 E0.02330
G1 X121.495 Y106.452 E0.02331
G1 X121.279 Y105.741 E0.02332
G1 X121.206 Y105.000 E0.02333
G1 X121.279 Y104.259 E0.02334
G1 X121.496 Y103.548 E0.02332
G1 X121.847 Y102.892 E0.02331
G1 X122.318 Y102.318 E0.02330
G1 X122.893 Y101.847 E0.02330
G1 X123.548 Y101.495 E0.02331
G1 X124.259 Y101.279 E0.02331
G1 X125.000 Y101.206 E0.02333
G1 X125.741 Y101.279 E0.02334
G1 X126.452 Y101.496 E0.02332
G1 X127.107 Y101.847 E0.02331
G1 X127.682 Y102.318 E0.02331
G1 X128.249 Y103.009 E0.02803
G1 X127.910 Y103.190 F10800.000
G1 F1200.000
G1 X127.910 Y106.810 E0.11348
G1 X127.414 Y107.414 E0.02451
G1 X126.897 Y107.839 E0.02098
G1 X126.307 Y108.155 E0.02099
G1 X125.667 Y108.349 E0.02098
G1 X125.000 Y108.415 E0.02100
G1 X124.333 Y108.349 E0.02100
G1 X123.693 Y108.155 E0.02098
G1 X123.103 Y107.838 E0.02099
G1 X122.586 Y107.414 E0.02098
G1 X122.162 Y106.897 E0.02098
G1 X121.845 Y106.307 E0.02099
G1 X121.651 Y105.666 E0.02099
G1 X121.585 Y105.000 E0.02100
G1 X121.651 Y104.333 E0.02100
G1 X121.846 Y103.693 E0.02099
G1 X122.162 Y103.103 E0.02099
G1 X122.586 Y102.586 E0.02098
G1 X123.103 Y102.162 E0.02098
G1 X123.693 Y101.845 E0.02099
G1 X124.333 Y101.651 E0.02098
G1 X125.000 Y101.585 E0.02100
G1 X125.667 Y101.651 E0.02100
G1 X126.307 Y101.846 E0.02099
G1 X126.897 Y102.162 E0.02098
G1 X127.414 Y102.586 E0.02098
G1 X127.872 Y103.144 E0.02263
G1 X128.296 Y103.295 F10800.000
G1 F8640.000
G1 X127.906 Y106.435 E-0.76000
G1 E-0.04000 F2100.00000
G1 Z0.800 F10800.000
G1 X126.075 Y93.731
G1 Z0.200
G1 E0.80000 F2100.00000
G1 F1200.000
G1 X125.998 Y93.916 E0.00629
G1 X125.667 Y94.247 E0.01468
G1 X125.235 Y94.427 E0.01465
G1 X124.765 Y94.427 E0.01476
G1 X124.333 Y94.247 E0.01465
G1 X124.002 Y93.916 E0.01468
G1 X123.925 Y93.731 E0.00629
G1 X123.925 Y93.984 E0.00794
G1 X123.746 Y94.418 E0.01473
G1 X123.415 Y94.749 E0.01469
G1 X122.982 Y94.929 E0.01469
G1 X122.515 Y94.929 E0.01465
G1 X122.080 Y94.749 E0.01477
G1 X121.750 Y94.417 E0.01468
G1 X121.571 Y93.985 E0.01466
G1 X121.571 Y93.517 E0.01469
G1 X121.750 Y93.085 E0.01466
G1 X122.079 Y92.753 E0.01467
G1 X122.513 Y92.573 E0.01473
G1 X122.983 Y92.573 E0.01474
G1 X123.415 Y92.753 E0.01465
G1 X123.746 Y93.084 E0.01468
G1 X123.823 Y93.269 E0.00629
G1 X123.823 Y93.016 E0.00794
G1 X124.002 Y92.582 E0.01473
G1 X124.333 Y92.251 E0.01469
G1 X124.766 Y92.071 E0.01469
G1 X125.234 Y92.071 E0.01467
G1 X125.667 Y92.251 E0.01469
G1 X125.998 Y92.582 E0.01469
G1 X126.177 Y93.016 E0.01473
G1 X126.177 Y93.269 E0.00794
G1 X126.254 Y93.084 E0.00629
G1 X126.585 Y92.753 E0.01468
G1 X127.017 Y92.573 E0.01465
G1 X127.487 Y92.573 E0.01474
G1 X127.921 Y92.753 E0.01473
G1 X128.250 Y93.085 E0.01467
G1 X128.429 Y93.517 E0.01466
G1 X128.429 Y93.985 E0.01469
G1 X128.250 Y94.417 E0.01466
G1 X127.920 Y94.749 E0.01468
G1 X127.485 Y94.929 E0.01477
G1 X127.018 Y94.929 E0.01465
G1 X126.585 Y94.749 E0.01469
G1 X126.254 Y94.418 E0.01469
G1 X126.075 Y93.984 E0.01473
G1 X126.075 Y93.791 E0.00606
G1 X126.452 Y93.791 F10800.000
G1 F1200.000
G1 X126.452 Y93.593 E0.00620
G1 X126.574 Y93.297 E0.01003
G1 X126.799 Y93.072 E0.00999
G1 X127.092 Y92.950 E0.00995
G1 X127.412 Y92.950 E0.01002
G1 X127.706 Y93.072 E0.01000
G1 X127.930 Y93.298 E0.00997
G1 X128.052 Y93.592 E0.00998
G1 X128.052 Y93.910 E0.00999
G1 X127.930 Y94.204 E0.00998
G1 X127.706 Y94.430 E0.00997
G1 X127.410 Y94.552 E0.01004
G1 X127.093 Y94.552 E0.00994
G1 X126.799 Y94.430 E0.00999
G1 X126.574 Y94.205 E0.00999
G1 X126.452 Y93.909 E0.01003
G1 X126.452 Y93.851 E0.00183
G1 X126.272 Y93.709 F10800.000
G1 X125.739 Y93.556
G1 F1200.000
G1 X125.678 Y93.703 E0.00498
G1 X125.453 Y93.928 E0.00999
G1 X125.160 Y94.050 E0.00995
G1 X124.840 Y94.050 E0.01003
G1 X124.547 Y93.928 E0.00995
G1 X124.322 Y93.703 E0.00999
G1 X124.200 Y93.407 E0.01003
G1 X124.200 Y93.091 E0.00991
G1 X124.322 Y92.795 E0.01003
G1 X124.547 Y92.570 E0.00999
G1 X124.841 Y92.448 E0.00999
G1 X125.159 Y92.448 E0.00995
G1 X125.453 Y92.570 E0.00999
G1 X125.678 Y92.795 E0.00999
G1 X125.800 Y93.091 E0.01003
G1 X125.800 Y93.407 E0.00991
G1 X125.762 Y93.500 E0.00317
G1 X125.846 Y93.673 F10800.000
G1 F8640.000
G1 X125.678 Y93.703 E-0.05052
G1 X125.453 Y93.928 E-0.07357
G1 X125.160 Y94.050 E-0.07327
G1 X124.840 Y94.050 E-0.07384
G1 X124.547 Y93.928 E-0.07327
G1 X124.322 Y93.703 E-0.07357
G1 X124.200 Y93.407 E-0.07386
G1 X124.200 Y93.091 E-0.07297
G1 X124.322 Y92.795 E-0.07386
G1 X124.547 Y92.570 E-0.07358
G1 X124.738 Y92.491 E-0.04768
G1 E-0.04000 F2100.00000
G1 Z0.800 F10800.000
G1 X123.548 Y93.593
G1 Z0.200
G1 E0.80000 F2100.00000
G1 F1200.000
G1 X123.548 Y93.909 E0.00991
G1 X123.426 Y94.205 E0.01003
G1 X123.201 Y94.430 E0.00999
G1 X122.907 Y94.552 E0.00999
G1 X122.590 Y94.552 E0.00994
G1 X122.294 Y94.430 E0.01004
G1 X122.070 Y94.204 E0.00997
G1 X121.948 Y93.910 E0.00998
G1 X121.948 Y93.592 E0.00999
G1 X122.070 Y93.298 E0.00998
G1 X122.294 Y93.072 E0.00997
G1 X122.588 Y92.950 E0.01000
G1 X122.908 Y92.950 E0.01002
G1 X123.201 Y93.072 E0.00995
G1 X123.426 Y93.297 E0.00999
G1 X123.525 Y93.538 E0.00815
G1 X123.848 Y93.695 F10800.000
G1 F8640.000
G1 X123.548 Y93.909 E-0.08594
G1 X123.426 Y94.205 E-0.07386
G1 X123.201 Y94.430 E-0.07358
G1 X122.907 Y94.552 E-0.07357
G1 X122.590 Y94.552 E-0.07320
G1 X122.294 Y94.430 E-0.07393
G1 X122.070 Y94.204 E-0.07341
G1 X121.948 Y93.910 E-0.07347
G1 X121.948 Y93.592 E-0.07357
G1 X122.070 Y93.298 E-0.07347
G1 X122.106 Y93.261 E-0.01200
G1 E-0.04000 F2100.00000
G1 Z0.800 F10800.000
G1 X113.981 Y103.925
G1 Z0.200
G1 E0.80000 F2100.00000
G1 F1200.000
G1 X114.166 Y104.002 E0.00629
G1 X114.497 Y104.333 E0.01468
G1 X114.677 Y104.765 E0.01465
G1 X114.677 Y105.235 E0.01476
G1 X114.497 Y105.667 E0.01465
G1 X114.166 Y105.998 E0.01468
G1 X113.981 Y106.075 E0.00629
G1 X114.234 Y106.075 E0.00794
G1 X114.668 Y106.254 E0.01473
G1 X114.999 Y106.585 E0.01469
G1 X115.179 Y107.018 E0.01469
G1 X115.179 Y107.485 E0.01465
G1 X114.999 Y107.920 E0.01477
G1 X114.667 Y108.250 E0.01468
G1 X114.235 Y108.429 E0.01466
G1 X113.767 Y108.429 E0.01469
G1 X113.335 Y108.250 E0.01466
G1 X113.003 Y107.921 E0.01467
G1 X112.823 Y107.487 E0.01473
G1 X112.823 Y107.017 E0.01474
G1 X113.003 Y106.585 E0.01465
G1 X113.334 Y106.254 E0.01468
G1 X113.519 Y106.177 E0.00629
G1 X113.266 Y106.177 E0.00794
G1 X112.832 Y105.998 E0.01473
G1 X112.501 Y105.667 E0.01469
G1 X112.321 Y105.234 E0.01469
G1 X112.321 Y104.766 E0.01467
G1 X112.501 Y104.333 E0.01469
G1 X112.832 Y104.002 E0.01469
G1 X113.266 Y103.823 E0.01473
G1 X113.519 Y103.823 E0.00794
G1 X113.334 Y103.746 E0.00629
G1 X113.003 Y103.415 E0.01468
G1 X112.823 Y102.983 E0.01465
G1 X112.823 Y102.513 E0.01474
G1 X113.003 Y102.079 E0.01473
G1 X113.335 Y101.750 E0.01468
G1 X113.768 Y101.571 E0.01470
G1 X114.234 Y101.571 E0.01461
G1 X114.667 Y101.750 E0.01470
G1 X114.999 Y102.080 E0.01468
G1 X115.179 Y102.515 E0.01477
G1 X115.179 Y102.982 E0.01465
G1 X114.999 Y103.415 E0.01469
G1 X114.668 Y103.746 E0.01469
G1 X114.234 Y103.925 E0.01473
G1 X114.041 Y103.925 E0.00606
G1 F8640.000
G1 X114.166 Y104.002 E-0.03395
G1 X114.497 Y104.333 E-0.10814
G1 X114.677 Y104.765 E-0.10791
G1 X114.677 Y105.235 E-0.10867
G1 X114.497 Y105.667 E-0.10791
G1 X114.166 Y105.998 E-0.10814
G1 X113.981 Y106.075 E-0.04634
G1 X114.234 Y106.075 E-0.05847
G1 X114.556 Y106.208 E-0.08048
G1 E-0.04000 F2100.00000
G1 Z0.800 F10800.000
G1 X114.041 Y106.452
G1 Z0.200
G1 E0.80000 F2100.00000
G1 F1200.000
G1 X114.159 Y106.452 E0.00371
G1 X114.455 Y106.574 E0.01003
G1 X114.680 Y106.799 E0.00999
G1 X114.802 Y107.093 E0.00999
G1 X114.802 Y107.410 E0.00994
G1 X114.680 Y107.706 E0.01004
G1 X114.454 Y107.930 E0.00997
G1 X114.160 Y108.052 E0.00998
G1 X113.842 Y108.052 E0.00999
G1 X113.548 Y107.930 E0.00998
G1 X113.322 Y107.706 E0.00997
G1 X113.200 Y107.412 E0.01000
G1 X113.200 Y107.092 E0.01002
G1 X113.322 Y106.799 E0.00995
G1 X113.547 Y106.574 E0.00999
G1 X113.843 Y106.452 E0.01003
G1 X113.981 Y106.452 E0.00432
G1 X114.091 Y106.345 F10800.000
G1 X113.657 Y105.800
G1 F1200.000
G1 X113.341 Y105.800 E0.00991
G1 X113.045 Y105.678 E0.01003
G1 X112.820 Y105.453 E0.00999
G1 X112.698 Y105.159 E0.00999
G1 X112.698 Y104.841 E0.00995
G1 X112.820 Y104.547 E0.00999
G1 X113.045 Y104.322 E0.00999
G1 X113.341 Y104.200 E0.01003
G1 X113.657 Y104.200 E0.00991
G1 X113.953 Y104.322 E0.01003
G1 X114.178 Y104.547 E0.00999
G1 X114.300 Y104.840 E0.00995
G1 X114.300 Y105.160 E0.01003
G1 X114.178 Y105.453 E0.00995
G1 X113.953 Y105.678 E0.00999
G1 X113.712 Y105.777 E0.00815
G1 X113.555 Y106.100 F10800.000
G1 F8640.000
G1 X113.341 Y105.800 E-0.08594
G1 X113.045 Y105.678 E-0.07386
G1 X112.820 Y105.453 E-0.07358
G1 X112.698 Y105.159 E-0.07357
G1 X112.698 Y104.841 E-0.07325
G1 X112.820 Y104.547 E-0.07357
G1 X113.045 Y104.322 E-0.07358
G1 X113.341 Y104.200 E-0.07386
G1 X113.657 Y104.200 E-0.07297
G1 X113.953 Y104.322 E-0.07386
G1 X113.989 Y104.359 E-0.01196
G1 E-0.04000 F2100.00000
G1 Z0.800 F10800.000
G1 X113.843 Y103.548
G1 Z0.200
G1 E0.80000 F2100.00000
G1 F1200.000
G1 X113.547 Y103.426 E0.01003
G1 X113.322 Y103.201 E0.00999
G1 X113.200 Y102.908 E0.00995
G1 X113.200 Y102.588 E0.01002
G1 X113.322 Y102.294 E0.01000
G1 X113.548 Y102.070 E0.00997
G1 X113.843 Y101.948 E0.01002
G1 X114.159 Y101.948 E0.00991
G1 X114.454 Y102.070 E0.01002
G1 X114.680 Y102.294 E0.00997
G1 X114.802 Y102.590 E0.01004
G1 X114.802 Y102.907 E0.00994
G1 X114.680 Y103.201 E0.00999
G1 X114.455 Y103.426 E0.00999
G1 X114.159 Y103.548 E0.01003
G1 X113.903 Y103.548 E0.00803
G1 X113.632 Y103.789 F10800.000
G1 F8640.000
G1 X113.547 Y103.426 E-0.08683
G1 X113.322 Y103.201 E-0.07357
G1 X113.200 Y102.908 E-0.07327
G1 X113.200 Y102.588 E-0.07379
G1 X113.322 Y102.294 E-0.07364
G1 X113.548 Y102.070 E-0.07342
G1 X113.843 Y101.948 E-0.07377
G1 X114.159 Y101.948 E-0.07297
G1 X114.454 Y102.070 E-0.07377
G1 X114.680 Y102.294 E-0.07343
G1 X114.699 Y102.340 E-0.01156
G1 E-0.04000 F2100.00000
G1 Z0.800 F10800.000
G1 X123.925 Y116.269
G1 Z0.200
G1 E0.80000 F2100.00000
G1 F1200.000
G1 X124.002 Y116.084 E0.00629
G1 X124.333 Y115.753 E0.01468
G1 X124.765 Y115.573 E0.01465
G1 X125.235 Y115.573 E0.01476
G1 X125.667 Y115.753 E0.01465
G1 X125.998 Y116.084 E0.01468
G1 X126.075 Y116.269 E0.00629
G1 X126.075 Y116.016 E0.00794
G1 X126.254 Y115.582 E0.01473
G1 X126.585 Y115.251 E0.01469
G1 X127.018 Y115.071 E0.01469
G1 X127.485 Y115.071 E0.01465
G1 X127.920 Y115.251 E0.01477
G1 X128.250 Y115.583 E0.01468
G1 X128.429 Y116.015 E0.01466
G1 X128.429 Y116.483 E0.01469
G1 X128.250 Y116.915 E0.01466
G1 X127.921 Y117.247 E0.01467
G1 X127.487 Y117.427 E0.01473
G1 X127.017 Y117.427 E0.01474
G1 X126.585 Y117.247 E0.01465
G1 X126.254 Y116.916 E0.01468
G1 X126.177 Y116.731 E0.00629
G1 X126.177 Y116.984 E0.00794
G1 X125.998 Y117.418 E0.01473
G1 X125.667 Y117.749 E0.01468
G1 X125.235 Y117.929 E0.01465
G1 X124.765 Y117.929 E0.01476
G1 X124.333 Y117.749 E0.01465
G1 X124.002 Y117.418 E0.01468
G1 X123.823 Y116.984 E0.01473
G1 X123.823 Y116.731 E0.00794
G1 X123.746 Y116.916 E0.00629
G1 X123.415 Y117.247 E0.01468
G1 X122.983 Y117.427 E0.01465
G1 X122.513 Y117.427 E0.01474
G1 X122.079 Y117.247 E0.01473
G1 X121.750 Y116.915 E0.01467
G1 X121.571 Y116.483 E0.01466
G1 X121.571 Y116.015 E0.01469
G1 X121.750 Y115.583 E0.01466
G1 X122.080 Y115.251 E0.01468
G1 X122.515 Y115.071 E0.01477
G1 X122.982 Y115.071 E0.01465
G1 X123.415 Y115.251 E0.01469
G1 X123.746 Y115.582 E0.01469
G1 X123.925 Y116.016 E0.01473
G1 X123.925 Y116.209 E0.00606
G1 F8640.000
G1 X124.002 Y116.084 E-0.03395
G1 X124.333 Y115.753 E-0.10814
G1 X124.765 Y115.573 E-0.10791
G1 X125.235 Y115.573 E-0.10867
G1 X125.667 Y115.753 E-0.10791
G1 X125.998 Y116.084 E-0.10814
G1 X126.075 Y116.269 E-0.04634
G1 X126.075 Y116.016 E-0.05847
G1 X126.208 Y115.694 E-0.08048
G1 E-0.04000 F2100.00000
G1 Z0.800 F10800.000
G1 X126.452 Y116.209
G1 Z0.200
G1 E0.80000 F2100.00000
G1 F1200.000
G1 X126.452 Y116.091 E0.00371
G1 X126.574 Y115.795 E0.01003
G1 X126.799 Y115.570 E0.00999
G1 X127.093 Y115.448 E0.00999
G1 X127.410 Y115.448 E0.00994
G1 X127.706 Y115.570 E0.01004
G1 X127.930 Y115.796 E0.00997
G1 X128.052 Y116.090 E0.00998
G1 X128.052 Y116.408 E0.00999
G1 X127.930 Y116.702 E0.00998
G1 X127.706 Y116.928 E0.00997
G1 X127.412 Y117.050 E0.01000
